picture/musketeer_portrait.svg

<?xml version="1.0" encoding="UTF-8" standalone="no"?>
<svg
   xmlns:dc="http://purl.org/dc/elements/1.1/"
   xmlns:cc="http://creativecommons.org/ns#"
   xmlns:rdf="http://www.w3.org/1999/02/22-rdf-syntax-ns#"
   xmlns:svg="http://www.w3.org/2000/svg"
   xmlns="http://www.w3.org/2000/svg"
   xmlns:sodipodi="http://sodipodi.sourceforge.net/DTD/sodipodi-0.dtd"
   xmlns:inkscape="http://www.inkscape.org/namespaces/inkscape"
   width="256"
   height="190"
   viewBox="0 0 67.73333 50.270835"
   version="1.1"
   id="svg8"
   inkscape:version="1.0.1 (3bc2e813f5, 2020-09-07)"
   sodipodi:docname="musketeer_portrait.svg">
  <defs
     id="defs2" />
  <sodipodi:namedview
     id="base"
     pagecolor="#ffffff"
     bordercolor="#666666"
     borderopacity="1.0"
     inkscape:pageopacity="0.0"
     inkscape:pageshadow="2"
     inkscape:zoom="3.959798"
     inkscape:cx="131.71136"
     inkscape:cy="99.486868"
     inkscape:document-units="mm"
     inkscape:current-layer="layer1"
     inkscape:document-rotation="0"
     showgrid="false"
     inkscape:window-width="1920"
     inkscape:window-height="1011"
     inkscape:window-x="-8"
     inkscape:window-y="-8"
     inkscape:window-maximized="1"
     units="px" />
  <metadata
     id="metadata5">
    <rdf:RDF>
      <cc:Work
         rdf:about="">
        <dc:format>image/svg+xml</dc:format>
        <dc:type
           rdf:resource="http://purl.org/dc/dcmitype/StillImage" />
        <dc:title />
      </cc:Work>
    </rdf:RDF>
  </metadata>
  <g
     inkscape:label="Calque 1"
     inkscape:groupmode="layer"
     id="layer1">
    <path
       style="fill:#ffffff;stroke:none;stroke-width:0.264583px;stroke-linecap:butt;stroke-linejoin:miter;stroke-opacity:1"
       d="M 38.159897,35.199121 46.283179,15.780506 30.313687,9.4494044 14.53318,16.441964 28.329311,42.994792 38.251186,39.309524 Z"
       id="path834"
       sodipodi:nodetypes="ccccccc" />
    <g
       id="g839"
       style="fill:#00796b;fill-opacity:1"
       transform="translate(1.5874958)">
      <path
         style="fill:#00796b;fill-opacity:1;stroke:none;stroke-width:0.263522px;stroke-linecap:butt;stroke-linejoin:miter;stroke-opacity:1"
         d="M 0.07960016,12.496166 C 1.619453,14.149697 3.3904016,14.853623 5.2795956,15.071713 10.69405,14.324732 13.527379,9.551844 18.093853,8.9667147 17.827401,6.1048473 19.258373,0.28032541 28.67956,7.67107e-7 31.562691,0.22363258 34.604053,-0.06753396 36.479548,3.4340659 c 17.426692,-3.003771 17.838758,1.5913463 17.735685,4.483357 9.024156,-1.3266082 13.619551,4.1893541 7.935971,8.7759311 10.09599,5.660672 -0.736476,21.036694 -12.628552,14.308589 -5.209911,3.029362 -8.218874,3.881481 -12.950251,4.197178 l -0.09286,-9.252884 c 3.284288,-0.378871 3.728517,-6.108319 0.742863,-4.769526 -0.34034,-11.053911 -15.031361,-8.474054 -16.249977,-4.376402 1.20083,-0.48092 2.393513,-0.71183 3.402878,-0.752533 l -0.710022,2.458002 h -3.249994 c -0.357458,1.366988 -0.783124,2.541284 -0.464285,5.818818 1.167508,0.207127 2.393189,0.09156 3.992848,-2.098593 L 22.94962,21.995708 c 1.448405,-1.348524 2.462437,-3.589506 3.594224,-5.588524 -0.113479,1.439247 -1.801578,5.631054 0.650001,4.006404 l -0.09286,1.621642 c 0.551006,-0.387866 2.156914,0.307954 4.457132,1.717027 1.454832,0.03826 2.528788,-0.966776 3.747119,-1.576345 -2.74194,1.361213 -1.438539,6.279508 -9.952608,2.272013 -1.593428,1.226064 -3.382114,1.884138 -5.215924,1.593709 1.111278,7.347778 6.173335,5.115225 9.192842,4.38796 1.484804,-0.354895 2.104764,0.409862 2.878572,1.621641 l -5.107133,1.430858 v 6.009612 l 3.714278,-3.815632 11.421414,5.723442 -15.321408,8.871318 -14.485691,-8.298979 8.914274,-5.151092 C 6.3380847,34.16483 -0.84797689,26.124099 0.07959033,12.496166 Z"
         id="path847"
         sodipodi:nodetypes="ccccccccccccccccccccccccccccccccccc" />
      <path
         style="fill:#00796b;fill-opacity:1;stroke:none;stroke-width:0.263522px;stroke-linecap:butt;stroke-linejoin:miter;stroke-opacity:1"
         d="m 28.435729,15.790872 -0.03282,2.495706 5.088628,-0.573339 c -1.359256,-1.374114 -2.997328,-1.89504 -5.055797,-1.922367 z"
         id="path849"
         sodipodi:nodetypes="cccc" />
    </g>
    <path
       style="fill:#ffffff;stroke:none;stroke-width:0.263522px;stroke-linecap:butt;stroke-linejoin:miter;stroke-opacity:1"
       d="M 29.013486,6.9158193 C 48.490561,5.0785618 68.605647,10.306386 52.274167,30.620377 62.750885,34.803109 73.34461,22.446101 61.467009,16.979523 68.593422,13.259006 64.925801,7.2183325 54.688443,8.8236299 56.4567,-1.4846124 34.132971,5.2498718 29.013486,6.9158193 Z"
       id="path851"
       sodipodi:nodetypes="ccccc" />
  </g>
</svg>

<svg xmlns="http://www.w3.org/2000/svg" width="256" height="190" viewBox="0 0 67.733 50.271"><path style="fill:#fff;stroke:none;stroke-width:.264583px;stroke-linecap:butt;stroke-linejoin:miter;stroke-opacity:1" d="m38.16 35.2 8.123-19.42-15.97-6.33-15.78 6.992L28.33 42.995l9.922-3.685z"/><g style="fill:#00796b;fill-opacity:1"><path style="fill:#00796b;fill-opacity:1;stroke:none;stroke-width:.263522px;stroke-linecap:butt;stroke-linejoin:miter;stroke-opacity:1" d="M.08 12.496c1.54 1.654 3.31 2.358 5.2 2.576 5.414-.747 8.247-5.52 12.814-6.105C17.827 6.105 19.258.28 28.68 0c2.883.224 5.924-.068 7.8 3.434C53.906.43 54.318 5.025 54.215 7.917c9.024-1.326 13.62 4.19 7.936 8.776 10.096 5.661-.736 21.037-12.628 14.309-5.21 3.03-8.22 3.881-12.95 4.197l-.093-9.253c3.284-.379 3.728-6.108.742-4.77-.34-11.053-15.031-8.473-16.25-4.376 1.201-.48 2.394-.712 3.403-.752l-.71 2.458h-3.25c-.357 1.367-.783 2.541-.464 5.819 1.168.207 2.393.091 3.993-2.099l-.994-.23c1.448-1.349 2.462-3.59 3.594-5.589-.114 1.44-1.802 5.631.65 4.007l-.093 1.621c.551-.388 2.157.308 4.457 1.717 1.455.039 2.529-.967 3.747-1.576-2.742 1.361-1.438 6.28-9.952 2.272-1.594 1.226-3.382 1.884-5.216 1.594 1.111 7.347 6.173 5.115 9.193 4.388 1.484-.355 2.104.41 2.878 1.621l-5.107 1.431v6.01l3.714-3.816L42.237 41.4l-15.322 8.87-14.485-8.298 8.914-5.151C6.338 34.165-.848 26.124.08 12.496z" transform="translate(1.587)"/><path style="fill:#00796b;fill-opacity:1;stroke:none;stroke-width:.263522px;stroke-linecap:butt;stroke-linejoin:miter;stroke-opacity:1" d="m28.436 15.79-.033 2.497 5.089-.574c-1.36-1.374-2.998-1.895-5.056-1.922z" transform="translate(1.587)"/></g><path style="fill:#fff;stroke:none;stroke-width:.263522px;stroke-linecap:butt;stroke-linejoin:miter;stroke-opacity:1" d="M29.013 6.916c19.478-1.837 39.593 3.39 23.261 23.704 10.477 4.183 21.07-8.174 9.193-13.64 7.126-3.721 3.459-9.762-6.779-8.156C56.457-1.485 34.133 5.25 29.013 6.916z"/></svg>
